icons/map-pin-add-fill.svg

<svg xmlns="http://www.w3.org/2000/svg" width="24" height="24" fill="none"><g clip-path="url(#a)"><g><path fill="#121212" d="M18.364 17.364L12 23.728L5.636 17.364C4.37734 16.1053 3.52019 14.5017 3.17293 12.7558C2.82567 11.01 3.00391 9.20041 3.6851 7.55588C4.36629 5.91136 5.51984 4.50575 6.99988 3.51683C8.47992 2.5279 10.22 2.00006 12 2.00006C13.78 2.00006 15.5201 2.5279 17.0001 3.51683C18.4802 4.50575 19.6337 5.91136 20.3149 7.55588C20.9961 9.20041 21.1743 11.01 20.8271 12.7558C20.4798 14.5017 19.6227 16.1053 18.364 17.364ZM11 9.99998H8V12H11V15H13V12H16V9.99998H13V6.99998H11V9.99998Z"/></g></g><defs><clipPath id="a"><rect width="24" height="24" fill="white"/></clipPath></defs></svg>

<svg width="24" height="24" fill="none" xmlns="http://www.w3.org/2000/svg"><g clip-path="url(#a)"><path d="M18.364 17.364 12 23.728l-6.364-6.364a9 9 0 1 1 12.728 0ZM11 10H8v2h3v3h2v-3h3v-2h-3V7h-2v3Z" /></g><defs><clipPath id="a"><path fill="#fff" d="M0 0h24v24H0z"/></clipPath></defs></svg>
